X:1013
T:Alexander's Hornpipe
T:Sandlark Hornpipe
R:Hornpipe
C:Trad.
O:Ireland
Z:Paul Hardy's Session Tunebook 2015 (see www.paulhardy.net). Creative Commons cc by-nc-sa licenced.
M:4/4
L:1/8
Q:1/4=160
K:D
(3ABc|"D"dAFA DFAd|fdcd "A"Acef|"Em"g2ge "D"fdcd|"A"(3efe (3dcB "D"A2 (3ABc|
"D"dAFA DFAd|fdcd "A"A2ef|"Em"g2ge "D"fdcd|"A"(3efe dc "D"d2:|
|:AG|"D"FAdA FAdA|"G"GBdB GBdB|"A"Acec Acec|"D"dfaf (3gfe dA|
"D"FAdA FAdA|"G"GBdB GBdB|"A"Acef "G"gecd|"A"(3efe dc "D"d2:|

